public/images/socials/icon_facebook.svg

<svg xmlns="http://www.w3.org/2000/svg" viewBox="0 0 9.58 18.34">
  <defs>
    <linearGradient id="a" x1="-1.03" y1="1.33" x2="10.28" y2="13.71" gradientUnits="userSpaceOnUse">
      <stop offset="0" stop-color="#b27f2a"/>
      <stop offset=".06" stop-color="#b7862e"/>
      <stop offset=".14" stop-color="#c49939"/>
      <stop offset=".24" stop-color="#dab84c"/>
      <stop offset=".33" stop-color="#f4dd62"/>
      <stop offset=".52" stop-color="#f4e38b"/>
      <stop offset=".66" stop-color="#f4dd62"/>
      <stop offset="1" stop-color="#b27f2a"/>
    </linearGradient>
  </defs>
  <g data-name="Слой 2">
    <path d="M7.64 3.1h1.94v-3C9.27.1 9 .06 8.64.05 8.06 0 7.47 0 6.89 0a4.3 4.3 0 00-2.47.77 3.63 3.63 0 00-1.48 2.47 7.57 7.57 0 00-.11 1.26v2.25H0V10h2.81v8.3h3.44v-8.24h2.8c.15-1.1.29-2.19.43-3.32H6.23V4.39c.05-.97.63-1.27 1.41-1.29z" fill-rule="evenodd" fill="url(#a)" data-name="Layer 1"/>
  </g>
</svg>

<svg xmlns="http://www.w3.org/2000/svg" xmlns:xlink="http://www.w3.org/1999/xlink" viewBox="0 0 9.58 18.34"><defs><style>.cls-1{fill-rule:evenodd;fill:url(#linear-gradient);}</style><linearGradient id="linear-gradient" x1="-1.03" y1="1.33" x2="10.28" y2="13.71" gradientUnits="userSpaceOnUse"><stop offset="0" stop-color="#b27f2a"/><stop offset="0.06" stop-color="#b7862e"/><stop offset="0.14" stop-color="#c49939"/><stop offset="0.24" stop-color="#dab84c"/><stop offset="0.33" stop-color="#f4dd62"/><stop offset="0.52" stop-color="#f4e38b"/><stop offset="0.66" stop-color="#f4dd62"/><stop offset="1" stop-color="#b27f2a"/></linearGradient></defs><title>Ресурс 2</title><g id="Слой_2" data-name="Слой 2"><g id="Layer_1" data-name="Layer 1"><path class="cls-1" d="M7.64,3.1c.57,0,1.13,0,1.7,0h.24v-3C9.27.1,9,.06,8.64.05,8.06,0,7.47,0,6.89,0A4.3,4.3,0,0,0,4.42.77,3.63,3.63,0,0,0,2.94,3.24,7.57,7.57,0,0,0,2.83,4.5c0,.67,0,1.33,0,2v.25H0V10H2.81v8.3H6.25V10.06h2.8c.15-1.1.29-2.19.43-3.32H6.23s0-1.64,0-2.35C6.28,3.42,6.86,3.12,7.64,3.1Z"/></g></g></svg>
